src/assets/geyser.svg

<svg xmlns="http://www.w3.org/2000/svg" class="chakra-icon css-h15c97" style="fill:#20ecc7" viewBox="0 0 1148 365"><path d="M346.396 125.679c-.203-1.22-.41-2.439-.641-3.651l-.738-3.905c-1.037-4.228-5.713-7.687-10.389-7.688l-113.363-.01c-4.678-.001-9.684 3.64-11.125 8.089l-24.086 74.359c-.711 2.196-1.646 4.901-.613 6.363 1.061 1.499 4.129 1.727 6.498 1.727h46.154s2.156-.018 2.443 1.479c.307 1.589-1.346 3.301-1.346 3.301l-81.357 85.507c-2.846 2.992-7.816 8.21-11.041 11.595l-20.869 21.897s-.426.479-.924.938q-.431.397-.826.703c-2.895 2.249-4.264.991-3.063-3.123l10.619-36.39c1.311-4.489 3.453-11.837 4.764-16.326l6.082-20.842c1.02-3.496 2.178-7.46 2.906-9.959.207-.71.689-2.899-.039-4.006-.691-1.051-1.855-1.25-3.162-1.25H93.484c-4.678 0-6.248-2.368-3.49-5.262l10.881-11.418 34.176-35.858c3.227-3.386 8.195-8.604 11.043-11.597s7.816-8.213 11.039-11.602l5.771-6.066 11.723-12.322 11.844-12.446 11.25-11.827c2.965-3.115 6.168-6.481 7.117-7.48l7.588-7.976 65.891-69.252c3.225-3.389 2.594-8.153-1.398-10.588 0 0-9.32-5.68-18.164-9.374C235.769 1.82 210.816-1.597 185.61.68a175 175 0 0 0-21.289 3.263c-19.084 4.134-37.775 11.412-55.367 21.5-10.984 6.295-21.494 13.67-31.371 22.014-23.264 19.65-42.787 44.486-56.658 73.245-6.891 14.286-11.973 28.718-15.41 43.002-7.205 29.942-7.146 59.342-1.015 85.795 4.076 17.603 10.859 34.017 20.059 48.593.56.89 1.135 1.775 1.715 2.651A143 143 0 0 0 43.1 321.638a140.5 140.5 0 0 0 33.107 25.173 144 144 0 0 0 19.166 8.764 145 145 0 0 0 11.232 3.665 150 150 0 0 0 19.732 4.138c57.996 8.169 125.443-17.346 172.045-73.3a225 225 0 0 0 23.289-33.795c8.67-15.438 15.322-31.626 19.873-48.129 3.795-13.762 6.121-27.723 6.939-41.613.815-13.813.134-27.527-2.087-40.862m.945 176.965 35.986-185.027q.597-2.699 1.199-3.898.598-1.197 2.699-2.249 2.095-1.05 5.996-1.05h106.76c5.197 0 7.393 2.398 6.598 7.197l-6.598 34.485q-.001 6.6-8.695 6.599h-58.479l-4.498 23.991h53.68q7.492 0 5.996 5.997l-6.598 34.486q0 7.498-8.695 7.498h-53.68l-5.996 30.887h65.973c4.396 0 6.299 2.201 5.699 6.598l-6.896 34.486q-.302 2.404-.752 3.599c-.299.802-1.102 1.603-2.398 2.399q-1.954 1.2-5.848 1.199H354.539q-5.099 0-6.447-1.649c-.901-1.097-1.155-2.947-.751-5.548m244.702-112.457h2.4q14.688-28.488 18.891-35.086l19.494-34.188q3.892-6.592 7.197-8.696c2.197-1.396 5.697-2.098 10.494-2.098h40.484c2.998 0 5.047.802 6.148 2.397 1.096 1.604.945 3.3-.449 5.1l-85.168 126.25-11.096 58.777q-.902 7.197-9.596 7.197h-40.786q-8.7 0-7.197-7.197l11.396-58.777h.301l-32.689-124.751q-.898-3.896 1.352-6.447c1.5-1.696 3.945-2.549 7.346-2.549h36.586q6.896.002 9.297 1.649 2.396 1.65 3.898 7.047l6.898 36.286c2.596 15.397 4.199 27.092 4.799 35.086m181.727-81.868q30.882.001 48.58 8.996 13.493 6.6 8.396 15.594l-7.496 21.893q-2.703 6.599-6.148 8.096c-2.301 1.004-5.75.9-10.346-.3q-19.496-3.895-36.287-3.897-8.7.002-12.596 2.548c-2.6 1.702-3.896 5.053-3.896 10.046q-.001 5.703 6.896 9.597l6.898 3q1.194.3 5.396 1.648c2.797.899 5.396 1.753 7.797 2.549q3.597 1.2 5.697 2.1c11.396 4.4 20.043 10.195 25.941 17.394q8.844 10.794 8.846 29.688c0 27.992-9.697 47.981-29.088 59.976q-25.493 15.294-62.074 15.294c-21.594 0-38.986-3.194-52.182-9.596-8.799-4.198-11.494-9.395-8.098-15.593l7.797-21.593c1.801-4.798 3.797-7.647 5.998-8.548q3.297-1.345 11.996.751c18.391 2.803 33.287 4.199 44.682 4.199q19.493.002 19.494-14.995c0-3.396-1.051-5.998-3.15-7.796q-3.152-2.7-11.545-5.399-20.995-6.593-35.686-16.794-17.093-12.889-17.094-37.784-.002-19.49 6.598-33.737 6.593-14.24 18.143-22.041 11.54-7.793 25.641-11.545 14.09-3.75 30.89-3.751m55.274 194.325 35.984-185.027q.597-2.699 1.199-3.898.598-1.197 2.701-2.249 2.094-1.05 5.996-1.05h106.758q7.794 0 6.6 7.197l-6.6 34.485q-.001 6.6-8.695 6.599h-58.478l-4.498 23.991h53.68q7.493 0 5.998 5.997l-6.598 34.486q0 7.498-8.697 7.498h-53.68l-5.996 30.887h65.975c4.395 0 6.297 2.201 5.697 6.598l-6.896 34.486q-.303 2.404-.752 3.599-.45 1.204-2.398 2.399-1.953 1.2-5.848 1.199H836.239q-5.098 0-6.447-1.649c-.898-1.097-1.152-2.947-.748-5.548m197.916-192.225h68.97c15.4 0 27.79 4.348 37.19 13.045 9.39 8.696 14.09 21.141 14.09 37.335 0 29.192-12.19 51.181-36.58 65.974l15.29 74.372q.9 3.9-1.65 6.297c-1.7 1.604-4.05 2.399-7.04 2.399h-37.49c-8.6 0-13.19-2.597-13.79-7.797l-7.8-64.475h-7.2l-12.59 65.074q-.9 7.197-9.6 7.197h-40.484q-5.102 0-6.598-1.649-1.504-1.645-.898-5.548l35.99-185.027c.6-2.597 1.59-4.447 2.99-5.548 1.4-1.096 3.8-1.649 7.2-1.649m51.28 48.281h-12l-5.99 32.087h11.39q6.3.001 10.95-5.248c3.1-3.494 4.64-9.043 4.64-16.644 0-6.793-2.99-10.195-8.99-10.195"/></svg>

<svg style="fill: #20ECC7" viewBox="0 0 1148 365" focusable="false" class="chakra-icon css-h15c97" xmlns="http://www.w3.org/2000/svg"><path d="M346.396 125.679C346.193 124.459 345.986 123.24 345.755 122.028C345.017 118.123 345.017 118.123 345.017 118.123C343.98 113.895 339.304 110.436 334.628 110.435L221.265 110.425C216.587 110.424 211.581 114.065 210.14 118.514L186.054 192.873C185.343 195.069 184.408 197.774 185.441 199.236C186.502 200.735 189.57 200.963 191.939 200.963H238.093C238.093 200.963 240.249 200.945 240.536 202.442C240.843 204.031 239.19 205.743 239.19 205.743L157.833 291.25C154.987 294.242 150.017 299.46 146.792 302.845L125.923 324.742C125.923 324.742 125.497 325.221 124.999 325.68C124.712 325.946 124.436 326.178 124.173 326.383C121.278 328.632 119.909 327.374 121.11 323.26L131.729 286.87C133.04 282.381 135.182 275.033 136.493 270.544L142.575 249.702C143.595 246.206 144.753 242.242 145.481 239.743C145.688 239.033 146.17 236.844 145.442 235.737C144.751 234.686 143.587 234.487 142.28 234.487C140.864 234.487 139.196 234.487 137.442 234.487H93.4839C88.8059 234.487 87.2359 232.119 89.9939 229.225C92.7519 226.331 97.6479 221.193 100.875 217.807L135.051 181.949C138.278 178.563 143.246 173.345 146.094 170.352C148.942 167.359 153.91 162.139 157.133 158.75L162.904 152.684C166.129 149.295 171.404 143.75 174.627 140.362L186.471 127.916C189.694 124.527 194.758 119.205 197.721 116.089C200.686 112.974 203.889 109.608 204.838 108.609C205.787 107.611 209.201 104.022 212.426 100.633L278.317 31.3812C281.542 27.9922 280.911 23.2282 276.919 20.7932C276.919 20.7932 267.599 15.1122 258.755 11.4192C235.769 1.81919 210.816 -1.59681 185.61 0.678194C178.503 1.32019 171.393 2.41119 164.321 3.94219C145.237 8.07619 126.546 15.3542 108.954 25.4422C97.9699 31.7382 87.4599 39.1132 77.5829 47.4572C54.3189 67.1072 34.7959 91.9432 20.9249 120.702C14.0339 134.988 8.95193 149.42 5.51493 163.704C-1.69007 193.646 -1.63107 223.046 4.49993 249.499C8.57593 267.102 15.3589 283.516 24.5589 298.092C25.1199 298.982 25.6939 299.867 26.2739 300.743C31.2249 308.225 36.8479 315.217 43.0999 321.638C52.6369 331.432 63.6919 339.937 76.2069 346.811C82.4469 350.24 88.8519 353.149 95.3729 355.575C99.0779 356.951 102.824 358.176 106.605 359.24C113.087 361.068 119.679 362.438 126.337 363.378C184.333 371.547 251.78 346.032 298.382 290.078C307.3 279.37 315.068 268.043 321.671 256.283C330.341 240.845 336.993 224.657 341.544 208.154C345.339 194.392 347.665 180.431 348.483 166.541C349.298 152.728 348.617 139.014 346.396 125.679Z"></path><path d="M347.341 302.644L383.327 117.617C383.725 115.817 384.124 114.519 384.526 113.719C384.924 112.921 385.825 112.172 387.225 111.47C388.621 110.771 390.621 110.42 393.221 110.42H499.981C505.178 110.42 507.374 112.818 506.579 117.617L499.981 152.102C499.981 156.502 497.081 158.701 491.286 158.701H432.807L428.309 182.692H481.989C486.983 182.692 488.983 184.692 487.985 188.689L481.387 223.175C481.387 228.174 478.489 230.673 472.692 230.673H419.012L413.016 261.56H478.989C483.385 261.56 485.288 263.761 484.688 268.158L477.792 302.644C477.589 304.247 477.341 305.446 477.04 306.243C476.741 307.045 475.938 307.846 474.642 308.642C473.339 309.443 471.39 309.841 468.794 309.841H354.539C351.139 309.841 348.992 309.292 348.092 308.192C347.191 307.095 346.937 305.245 347.341 302.644Z"></path><path d="M592.043 190.187H594.443C604.234 171.195 610.533 159.5 613.334 155.101L632.828 120.913C635.422 116.519 637.822 113.619 640.025 112.217C642.222 110.821 645.722 110.119 650.519 110.119H691.003C694.001 110.119 696.05 110.921 697.151 112.516C698.247 114.12 698.096 115.816 696.702 117.616L611.534 243.866L600.438 302.643C599.838 307.441 596.637 309.84 590.842 309.84H550.056C544.255 309.84 541.857 307.441 542.859 302.643L554.255 243.866H554.556L521.867 119.115C521.269 116.519 521.719 114.368 523.219 112.668C524.719 110.972 527.164 110.119 530.565 110.119H567.151C571.749 110.119 574.847 110.671 576.448 111.768C578.046 112.869 579.344 115.216 580.346 118.815L587.244 155.101C589.84 170.498 591.443 182.193 592.043 190.187Z"></path><path d="M773.77 108.319C794.358 108.319 810.551 111.319 822.35 117.315C831.346 121.715 834.143 126.912 830.746 132.909L823.25 154.802C821.449 159.2 819.398 161.901 817.102 162.898C814.801 163.902 811.352 163.798 806.756 162.598C793.758 160.002 781.664 158.701 770.469 158.701C764.668 158.701 760.471 159.553 757.873 161.249C755.273 162.951 753.977 166.302 753.977 171.295C753.977 175.096 756.274 178.297 760.873 180.892L767.771 183.892C768.566 184.093 770.367 184.64 773.167 185.54C775.964 186.439 778.563 187.293 780.964 188.089C783.362 188.89 785.261 189.588 786.661 190.189C798.057 194.589 806.704 200.384 812.602 207.583C818.497 214.779 821.448 224.675 821.448 237.271C821.448 265.263 811.751 285.252 792.36 297.247C775.366 307.443 754.672 312.541 730.286 312.541C708.692 312.541 691.3 309.347 678.104 302.945C669.305 298.747 666.61 293.55 670.006 287.352L677.803 265.759C679.604 260.961 681.6 258.112 683.801 257.211C686 256.314 689.996 256.565 695.797 257.962C714.188 260.765 729.084 262.161 740.479 262.161C753.473 262.161 759.973 257.165 759.973 247.166C759.973 243.77 758.922 241.168 756.823 239.37C754.723 237.57 750.872 235.77 745.278 233.971C731.282 229.576 719.385 223.977 709.592 217.177C698.197 208.585 692.498 195.989 692.498 179.393C692.498 166.399 694.695 155.155 699.096 145.656C703.491 136.164 709.539 128.815 717.239 123.615C724.932 118.419 733.479 114.572 742.88 112.07C752.273 109.57 762.57 108.319 773.77 108.319Z"></path><path d="M829.044 302.644L865.028 117.617C865.426 115.817 865.825 114.519 866.227 113.719C866.625 112.921 867.526 112.172 868.928 111.47C870.323 110.771 872.324 110.42 874.924 110.42H981.682C986.879 110.42 989.077 112.818 988.282 117.617L981.682 152.102C981.682 156.502 978.782 158.701 972.987 158.701H914.509L910.011 182.692H963.691C968.685 182.692 970.687 184.692 969.689 188.689L963.091 223.175C963.091 228.174 960.191 230.673 954.394 230.673H900.714L894.718 261.56H960.693C965.088 261.56 966.99 263.761 966.39 268.158L959.494 302.644C959.291 304.247 959.043 305.446 958.742 306.243C958.443 307.045 957.642 307.846 956.344 308.642C955.043 309.443 953.092 309.841 950.496 309.841H836.239C832.839 309.841 830.692 309.292 829.792 308.192C828.894 307.095 828.64 305.245 829.044 302.644Z"></path><path d="M1026.96 110.419H1095.93C1111.33 110.419 1123.72 114.767 1133.12 123.464C1142.51 132.16 1147.21 144.605 1147.21 160.799C1147.21 189.991 1135.02 211.98 1110.63 226.773L1125.92 301.145C1126.52 303.745 1125.97 305.844 1124.27 307.442C1122.57 309.046 1120.22 309.841 1117.23 309.841H1079.74C1071.14 309.841 1066.55 307.244 1065.95 302.044L1058.15 237.569H1050.95L1038.36 302.643C1037.76 307.441 1034.56 309.84 1028.76 309.84H988.276C984.874 309.84 982.676 309.291 981.678 308.191C980.676 307.094 980.375 305.245 980.78 302.643L1016.77 117.616C1017.37 115.019 1018.36 113.169 1019.76 112.068C1021.16 110.972 1023.56 110.419 1026.96 110.419ZM1078.24 158.7H1066.24L1060.25 190.787H1071.64C1075.84 190.787 1079.49 189.039 1082.59 185.539C1085.69 182.045 1087.23 176.496 1087.23 168.895C1087.23 162.102 1084.24 158.7 1078.24 158.7Z"></path></svg>
